source/img/svg/quotes-icon.svg

<svg width="38" height="32" viewBox="0 0 38 32" fill="none" xmlns="http://www.w3.org/2000/svg">
<path d="M8.99592 9.09953C10.2367 7.38073 12.4599 6.26857 15.6653 5.76304V0C10.185 0 6.20408 1.66825 3.72245 5.00474C1.24082 8.34124 0 13.2954 0 19.8673V32H15.2V17.5924H7.2898C7.2898 13.5482 7.8585 10.7172 8.99592 9.09953Z" fill="#6DAD45"/>
<path d="M31.3306 9.09953C32.5714 7.38073 34.7946 6.26857 38 5.76304V0C32.5197 0 28.5388 1.66825 26.0571 5.00474C23.5755 8.34124 22.3347 13.2954 22.3347 19.8673V32H37.5347V17.5924H29.6245C29.6245 13.5482 30.1932 10.7172 31.3306 9.09953Z" fill="#6DAD45"/>
</svg>

<svg width="38" height="32" fill="none" xmlns="http://www.w3.org/2000/svg"><path d="M8.996 9.1c1.24-1.72 3.464-2.831 6.67-3.337V0C10.184 0 6.203 1.668 3.721 5.005 1.241 8.34 0 13.295 0 19.867V32h15.2V17.592H7.29c0-4.044.569-6.875 1.706-8.492zm22.334 0c1.241-1.72 3.465-2.831 6.67-3.337V0c-5.48 0-9.461 1.668-11.943 5.005-2.481 3.336-3.722 8.29-3.722 14.862V32h15.2V17.592h-7.91c0-4.044.568-6.875 1.706-8.492z" fill="#6DAD45"/></svg>
